X:36
%%score 1 2
%%pagewidth 800pt
T:Lusty Gallant
M:6/8
L:1/8
K:G
V:1 clef-treble
V:2 clef-bass octave=-1
V:1
G|[B,EG]2A [^DFc]2B|[EBe]2B e2B|[EG]2A [B,E(B]A)G|[A,^DF]3 [G,E]2 :||:
w:Fain would I have a pret-ty thing To give un-to* my La-dy,
V:2
z|E3 B,3|G,6|E,3 G,3|B,3 E2 :||:
V:1
E|[B,E(G]F)G [DFA]2A|[DGB]2c [DAd]2d|[EGc]2[DFB] [CEA]2[B,G]|[A,^DF]3[G,E]2 :||:
w:I name* no thing, And mean no thing, But~as pretty a thing as may be.
V:2
z|E3 D3|G,3 F,3|E,3 A,3| B,3 E2 :||:

